svgs/microsoft_edge.svg

<svg width="192" height="192" viewBox="0 0 192 192" fill="none" xmlns="http://www.w3.org/2000/svg"><path d="m155.601 132.18 2.767 5.324.024-.012.023-.013-2.814-5.299Zm-6.128 2.719-2.089-5.625-.005.002 2.094 5.623Zm-20.754 3.701.02-6h-.02v6ZM77.556 95.627l-6-.066v.066h6Zm9.481-15.79-2.547-5.432-.053.025-.052.025 2.652 5.382Zm33.126 86.12 1.765 5.735.098-.03.097-.034-1.96-5.671Zm38.502-30.538 5.075 3.201.031-.051.031-.051-5.137-3.099Zm-75.56 26.143-3.166 5.096 1.455.904h1.712v-6Zm-13.122-12.32 4.886-3.482-.02-.028-.02-.028-4.846 3.538Zm26.072-71.718-.084 6h.039l.045-6Zm14.858 7.519 4.815-3.58-.004-.005-.005-.007-4.806 3.592Zm-81.86 42.395-5.443 2.525.006.012.006.012 5.43-2.549Zm90.416 38.751 1.901 5.691-3.709-11.412 1.808 5.721Zm-36.305-4.627 3.184-5.085-1.46-.915h-1.724v6Zm51.74-41.065v6h.004l-.004-6Zm17.517-4.8-3.03-5.179-.013.007-.012.008 3.055 5.164Zm17.574-30.596-5.999-.08-.001.035v.035l6 .01Zm-6.532-25.391 5.367-2.682-.016-.031-.015-.031-5.336 2.744ZM95.998 22v6-6ZM22 94.99l-6-.081 12 .166-6-.084Zm70.53-32.388-2.788 5.313.058.03.058.03 2.671-5.373Zm17.863 16.946-5.225 2.95.012.021.012.02 5.201-2.99Zm1.078 36.609-3.373 4.962 3.373-4.962Zm41.362 10.7a48.23 48.23 0 0 1-5.449 2.417l4.177 11.249a60.077 60.077 0 0 0 6.807-3.019l-5.535-10.647Zm-5.454 2.419a52.899 52.899 0 0 1-18.64 3.324l-.041 12a64.865 64.865 0 0 0 22.868-4.079l-4.187-11.245Zm-18.66 3.324c-25.171 0-45.163-17.146-45.163-36.973h-12c0 28.525 27.645 48.973 57.163 48.973v-12ZM83.556 95.693a12.226 12.226 0 0 1 1.743-6.16l-10.288-6.177a24.225 24.225 0 0 0-3.454 12.205l11.999.132Zm1.743-6.16a12.213 12.213 0 0 1 4.615-4.43l-5.754-10.53a24.215 24.215 0 0 0-9.149 8.784L85.3 89.534Zm35.877 82.39.752-.231-3.531-11.469-.751.231 3.53 11.469Zm.947-.295a80.18 80.18 0 0 0 41.617-33.008l-10.151-6.401a68.177 68.177 0 0 1-35.387 28.068l3.921 11.341Zm41.679-33.11a8.311 8.311 0 0 0 1.147-5.185l-11.931 1.286a3.691 3.691 0 0 1 .509-2.299l10.275 6.198Zm1.147-5.185a8.312 8.312 0 0 0-2.226-4.823l-8.717 8.247a3.687 3.687 0 0 1-.988-2.138l11.931-1.286Zm-2.226-4.823a8.31 8.31 0 0 0-4.693-2.49l-1.942 11.842a3.687 3.687 0 0 1-2.082-1.105l8.717-8.247Zm-4.693-2.49a8.31 8.31 0 0 0-5.244.861l5.629 10.598a3.691 3.691 0 0 1-2.327.383l1.942-11.842Zm-71.757 30.445a39.79 39.79 0 0 1-11.404-10.705l-9.772 6.965a51.81 51.81 0 0 0 14.842 13.933l6.334-10.193Zm-11.445-10.761a40.684 40.684 0 0 1-7.058-16.116l-11.772 2.324a52.682 52.682 0 0 0 9.14 20.869l9.69-7.077Zm-7.058-16.116a40.696 40.696 0 0 1 .406-17.591l-11.654-2.864a52.699 52.699 0 0 0-.524 22.779l11.772-2.324Zm.406-17.591a40.68 40.68 0 0 1 7.792-15.773l-9.354-7.516a52.685 52.685 0 0 0-10.092 20.425l11.654 2.864Zm7.792-15.773A40.657 40.657 0 0 1 89.69 85.219l-5.304-10.763a52.658 52.658 0 0 0-17.771 14.252l9.354 7.516ZM89.585 85.27c1.865-.875 3.803-1.783 6.386-1.747l.169-11.998c-5.626-.08-9.816 2.02-11.65 2.88l5.095 10.865Zm6.424-1.746c1.963.015 3.895.484 5.647 1.37l5.418-10.707a24.722 24.722 0 0 0-10.972-2.663l-.093 12Zm5.647 1.37a12.722 12.722 0 0 1 4.45 3.74l9.613-7.183a24.724 24.724 0 0 0-8.645-7.263l-5.418 10.706Zm4.441 3.728a12.449 12.449 0 0 1 2.458 7.3l12-.127a24.458 24.458 0 0 0-4.827-14.331l-9.631 7.158Zm-90.039 6.373a81.335 81.335 0 0 0 7.552 34.968l10.886-5.051a69.333 69.333 0 0 1-6.438-29.81l-12-.107Zm7.564 34.992a80.009 80.009 0 0 0 40.908 39.546l4.727-11.029a68.013 68.013 0 0 1-34.773-33.616l-10.863 5.099Zm40.908 39.546a79.968 79.968 0 0 0 56.84 2.347l-3.802-11.382a67.97 67.97 0 0 1-48.31-1.994l-4.728 11.029Zm53.131-9.065a37.628 37.628 0 0 1-16.094 1.446l-1.517 11.904c7.13.909 14.372.258 21.227-1.908l-3.616-11.442Zm-16.094 1.446a37.637 37.637 0 0 1-15.218-5.437l-6.37 10.17a49.647 49.647 0 0 0 20.071 7.171l1.517-11.904Zm-18.403-6.352h-.058v12h.058v-12Zm24.934-34.443c5.432 3.693 12.601 4.862 17.649 5.271 5.124.414 9.76.107 9.157.107v-12c-.654 0-3.651.299-8.189-.068-4.614-.373-9.135-1.374-11.871-3.234l-6.746 9.924Zm26.81 5.378a40.437 40.437 0 0 0 20.568-5.637l-6.11-10.327a28.44 28.44 0 0 1-14.466 3.964l.008 12Zm20.543-5.622a41.494 41.494 0 0 0 15.027-15.149l-10.405-5.977a29.509 29.509 0 0 1-10.682 10.769l6.06 10.357Zm15.027-15.149a41.514 41.514 0 0 0 5.517-20.616l-12-.02a29.52 29.52 0 0 1-3.922 14.659l10.405 5.977Zm5.517-20.545c.195-14.55-5.254-24.33-7.165-28.153l-10.734 5.364c1.905 3.812 6.052 11.267 5.9 22.628l11.999.16Zm-7.196-28.215C155.266 30.65 126.527 16 95.998 16v12c26.935 0 51.035 12.88 62.129 34.454l10.672-5.488ZM95.999 16a79.98 79.98 0 0 0-56.175 23.042l8.427 8.544A67.98 67.98 0 0 1 95.997 28l.001-12ZM39.823 39.042A80.048 80.048 0 0 0 16 94.906l11.998.17a68.048 68.048 0 0 1 20.252-47.49l-8.427-8.544ZM28 95.073c.231-16.857 17.49-32.255 40.25-32.255v-12c-27.19 0-51.901 18.727-52.248 44.09L28 95.073Zm40.25-32.255c1.783 0 12.13.186 21.493 5.097l5.574-10.627c-12.027-6.309-24.804-6.47-27.067-6.47v12Zm21.609 5.157a35.98 35.98 0 0 1 15.31 14.524l10.449-5.901A47.979 47.979 0 0 0 95.2 57.229l-5.342 10.746Zm15.334 14.565c2.75 4.782 3.363 11.338 3.363 14.07h12c0-3.514-.659-12.574-4.961-20.053l-10.402 5.983Zm3.363 14.07c0-.005 0 .034-.006.125a8.485 8.485 0 0 1-.034.358c-.034.305-.09.694-.171 1.16a44.332 44.332 0 0 1-.727 3.315c-.647 2.523-1.515 5.145-2.406 7.054l10.872 5.078c1.316-2.817 2.403-6.21 3.157-9.149.715-2.785 1.315-5.869 1.315-7.94h-12Zm6.289 14.585c.4.272.729.64.954 1.043.215.385.294.724.321.942.026.215.008.353-.002.409a.433.433 0 0 1-.034.111l-10.872-5.078c-1.347 2.883-2.293 8.976 2.887 12.497l6.746-9.924Z" fill="#000"/></svg>

<?xml version="1.0" encoding="UTF-8" standalone="no"?><svg xmlns:android="http://schemas.android.com/apk/res/android" height="192" width="192" xmlns="http://www.w3.org/2000/svg">
  <path d="M155.601,132.18L158.368,137.504L158.392,137.492L158.415,137.479L155.601,132.18ZM149.473,134.899L147.384,129.274L147.379,129.276L149.473,134.899ZM128.719,138.6L128.739,132.6L128.729,132.6H128.719V138.6ZM77.556,95.627L71.557,95.561L71.556,95.594V95.627H77.556ZM87.037,79.837L84.49,74.405L84.437,74.43L84.385,74.455L87.037,79.837ZM120.163,165.957L121.928,171.692L122.026,171.662L122.123,171.628L120.163,165.957ZM158.665,135.419L163.74,138.62L163.771,138.569L163.802,138.518L158.665,135.419ZM83.106,161.562L79.939,166.658L81.394,167.562H83.106V161.562ZM69.983,149.242L74.869,145.76L74.849,145.732L74.828,145.704L69.983,149.242ZM96.055,77.524L95.971,83.523L95.99,83.524L96.009,83.524L96.055,77.524ZM110.913,85.043L115.728,81.464L115.724,81.458L115.719,81.451L110.913,85.043ZM29.053,127.438L23.61,129.963L23.616,129.975L23.622,129.987L29.053,127.438ZM119.469,166.189L121.37,171.88L117.661,160.468L119.469,166.189ZM83.164,161.562L86.349,156.477L84.887,155.562H83.164V161.562ZM134.904,120.497V126.497H134.908L134.904,120.497ZM152.421,115.697L149.391,110.518L149.378,110.525L149.366,110.533L152.421,115.697ZM169.995,85.101L163.996,85.02L163.995,85.056L163.995,85.091L169.995,85.101ZM163.463,59.71L168.83,57.028L168.814,56.997L168.799,56.966L163.463,59.71ZM95.998,22L95.997,28H95.998V22ZM22,94.991L16.001,94.909L27.999,95.075L22,94.991ZM92.529,62.602L89.742,67.915L89.8,67.946L89.858,67.975L92.529,62.602ZM110.393,79.548L105.168,82.499L105.18,82.519L105.192,82.54L110.393,79.548ZM111.471,116.157L108.098,121.119L111.471,116.157ZM152.833,126.857C151.068,127.774 149.248,128.582 147.384,129.274L151.561,140.523C153.891,139.658 156.164,138.65 158.368,137.504L152.833,126.857ZM147.379,129.276C141.416,131.496 135.102,132.622 128.739,132.6L128.698,144.6C136.504,144.627 144.251,143.246 151.566,140.521L147.379,129.276ZM128.719,132.6C103.548,132.6 83.556,115.454 83.556,95.627H71.556C71.556,124.152 99.201,144.6 128.719,144.6V132.6ZM83.556,95.693C83.58,93.521 84.181,91.395 85.299,89.534L75.011,83.356C72.796,87.046 71.604,91.258 71.557,95.561L83.556,95.693ZM85.299,89.534C86.417,87.673 88.01,86.143 89.914,85.103L84.16,74.572C80.384,76.635 77.226,79.667 75.011,83.356L85.299,89.534ZM121.176,171.923L121.928,171.692L118.397,160.223L117.646,160.454L121.176,171.923ZM122.123,171.628C139.341,165.675 154.019,154.033 163.74,138.62L153.589,132.219C145.323,145.326 132.842,155.225 118.202,160.287L122.123,171.628ZM163.802,138.518C164.741,136.962 165.144,135.14 164.949,133.333L153.018,134.619C152.932,133.818 153.111,133.01 153.527,132.32L163.802,138.518ZM164.949,133.333C164.754,131.525 163.973,129.831 162.723,128.51L154.006,136.757C153.451,136.171 153.105,135.42 153.018,134.619L164.949,133.333ZM162.723,128.51C161.473,127.189 159.825,126.314 158.03,126.02L156.088,137.862C155.291,137.731 154.56,137.343 154.006,136.757L162.723,128.51ZM158.03,126.02C156.235,125.725 154.393,126.028 152.786,126.881L158.415,137.479C157.702,137.858 156.884,137.992 156.088,137.862L158.03,126.02ZM86.273,156.465C81.801,153.687 77.925,150.048 74.869,145.76L65.097,152.725C69.074,158.305 74.119,163.041 79.939,166.658L86.273,156.465ZM74.828,145.704C71.329,140.912 68.92,135.411 67.77,129.588L55.998,131.912C57.486,139.452 60.605,146.575 65.137,152.781L74.828,145.704ZM67.77,129.588C66.621,123.765 66.759,117.761 68.176,111.997L56.522,109.133C54.688,116.597 54.509,124.371 55.998,131.912L67.77,129.588ZM68.176,111.997C69.592,106.233 72.252,100.849 75.968,96.224L66.614,88.708C61.801,94.698 58.356,101.67 56.522,109.133L68.176,111.997ZM75.968,96.224C79.685,91.598 84.368,87.842 89.689,85.219L84.385,74.455C77.492,77.852 71.427,82.717 66.614,88.708L75.968,96.224ZM89.585,85.27C91.45,84.395 93.387,83.487 95.971,83.523L96.14,71.525C90.514,71.445 86.325,73.545 84.49,74.405L89.585,85.27ZM96.009,83.524C97.972,83.539 99.904,84.008 101.656,84.895L107.074,74.188C103.671,72.465 99.916,71.554 96.102,71.524L96.009,83.524ZM101.656,84.895C103.408,85.781 104.931,87.061 106.106,88.634L115.719,81.451C113.436,78.396 110.478,75.91 107.074,74.188L101.656,84.895ZM106.097,88.622C107.667,90.734 108.528,93.289 108.555,95.922L120.555,95.795C120.5,90.628 118.811,85.611 115.728,81.464L106.097,88.622ZM16.058,94.995C15.949,107.067 18.529,119.012 23.61,129.963L34.495,124.912C30.164,115.577 27.965,105.394 28.058,95.103L16.058,94.995ZM23.622,129.987C31.954,147.738 46.511,161.811 64.53,169.533L69.257,158.504C53.942,151.94 41.568,139.978 34.484,124.888L23.622,129.987ZM64.53,169.533C82.549,177.256 102.776,178.091 121.37,171.88L117.568,160.498C101.764,165.777 84.573,165.068 69.257,158.504L64.53,169.533ZM117.661,160.468C112.464,162.11 106.973,162.603 101.567,161.914L100.05,173.818C107.18,174.727 114.422,174.076 121.277,171.91L117.661,160.468ZM101.567,161.914C96.16,161.225 90.968,159.37 86.349,156.477L79.979,166.647C86.071,170.462 92.919,172.909 100.05,173.818L101.567,161.914ZM83.164,155.562H83.106V167.562H83.164V155.562ZM108.098,121.119C113.53,124.812 120.699,125.981 125.747,126.39C130.871,126.804 135.507,126.497 134.904,126.497V114.497C134.25,114.497 131.253,114.796 126.715,114.429C122.101,114.056 117.58,113.055 114.844,111.195L108.098,121.119ZM134.908,126.497C142.145,126.492 149.248,124.546 155.476,120.86L149.366,110.533C144.985,113.125 139.99,114.494 134.9,114.497L134.908,126.497ZM155.451,120.875C161.695,117.222 166.875,111.999 170.478,105.726L160.073,99.749C157.511,104.209 153.828,107.921 149.391,110.518L155.451,120.875ZM170.478,105.726C174.082,99.452 175.984,92.345 175.995,85.11L163.995,85.091C163.987,90.235 162.635,95.288 160.073,99.749L170.478,105.726ZM175.995,85.181C176.19,70.631 170.741,60.851 168.83,57.028L158.096,62.392C160.001,66.204 164.148,73.659 163.996,85.02L175.995,85.181ZM168.799,56.966C155.266,30.65 126.527,16 95.998,16V28C122.933,28 147.033,40.88 158.127,62.454L168.799,56.966ZM95.998,16C74.974,15.998 54.795,24.276 39.824,39.042L48.251,47.586C60.977,35.034 78.128,27.998 95.997,28L95.998,16ZM39.824,39.042C24.854,53.809 16.296,73.877 16.001,94.907L27.999,95.075C28.251,77.197 35.526,60.138 48.251,47.586L39.824,39.042ZM27.999,95.073C28.23,78.216 45.49,62.818 68.249,62.818V50.818C41.059,50.818 16.348,69.545 16.001,94.909L27.999,95.073ZM68.249,62.818C70.032,62.818 80.38,63.004 89.742,67.915L95.316,57.289C83.289,50.979 70.512,50.818 68.249,50.818V62.818ZM89.858,67.975C96.297,71.176 101.63,76.235 105.168,82.499L115.617,76.598C110.9,68.245 103.788,61.499 95.2,57.229L89.858,67.975ZM105.192,82.54C107.942,87.322 108.555,93.878 108.555,96.61H120.555C120.555,93.096 119.896,84.036 115.594,76.557L105.192,82.54ZM108.555,96.61C108.555,96.605 108.555,96.644 108.549,96.735C108.543,96.823 108.532,96.942 108.515,97.093C108.481,97.398 108.425,97.787 108.344,98.254C108.181,99.188 107.935,100.329 107.617,101.568C106.97,104.091 106.102,106.713 105.211,108.622L116.083,113.7C117.399,110.883 118.486,107.49 119.24,104.551C119.955,101.766 120.555,98.682 120.555,96.61H108.555ZM114.844,111.195C115.244,111.467 115.573,111.835 115.798,112.238C116.013,112.623 116.092,112.962 116.119,113.18C116.145,113.395 116.127,113.533 116.117,113.589C116.106,113.647 116.093,113.679 116.083,113.7L105.211,108.622C103.864,111.505 102.918,117.598 108.098,121.119L114.844,111.195Z" fill="#000000"/>
</svg>
